fs/triangle_left_20_regular.svg

<svg viewBox="0 0 20 20" fill="none" xmlns="http://www.w3.org/2000/svg" height="1em" width="1em">
  <path d="M15.5384 17.8789C16.2018 18.2354 17.0042 17.7528 17.0042 16.9972L17.0042 3.00552C17.0042 2.24995 16.2018 1.76732 15.5384 2.12385L2.52175 9.11971C1.82052 9.49658 1.82052 10.5062 2.52175 10.883L15.5384 17.8789ZM18 16.9972C18 18.5084 16.3953 19.4736 15.0685 18.7606L2.05184 11.7647C0.649389 11.0109 0.649385 8.9918 2.05184 8.23804L15.0685 1.24219C16.3953 0.529124 18 1.49439 18 3.00552L18 16.9972Z" fill="#212121"/>
</svg>

<svg viewBox="0 0 20 20" fill="none" xmlns="http://www.w3.org/2000/svg" height="1em" width="1em">
  <path d="M15.538 17.879a.996.996 0 0 0 1.466-.882V3.006a.996.996 0 0 0-1.466-.882L2.522 9.12a1.002 1.002 0 0 0 0 1.763l13.016 6.996ZM18 16.997c0 1.511-1.605 2.477-2.931 1.764L2.052 11.765c-1.403-.754-1.403-2.773 0-3.527l13.017-6.996C16.395.53 18 1.494 18 3.006v13.991Z" fill="#212121"/>
</svg>
